src/icons/svg/box.svg

<?xml version="1.0" encoding="UTF-8"?>
<svg width="12px" height="12px" viewBox="0 0 12 12" version="1.1" xmlns="http://www.w3.org/2000/svg" xmlns:xlink="http://www.w3.org/1999/xlink">
    <!-- Generator: Sketch 57.1 (83088) - https://sketch.com -->
    <title>编组</title>
    <desc>Created with Sketch.</desc>
    <g id="页面1" stroke="none" stroke-width="1" fill="none" fill-rule="evenodd">
        <g id="指向积分图标时" transform="translate(-1450.000000, -133.000000)" fill="#FFFFFF" fill-rule="nonzero">
            <g id="编组" transform="translate(1450.000000, 133.000000)">
                <path d="M10.5626769,2.18829394 L10.1526657,2.18829394 C10.3605788,1.83576987 10.4518204,1.49952524 10.4226709,1.18763331 C10.3984805,0.926601678 10.2747687,0.553267096 9.82142439,0.255735909 C9.44556599,0.008474625 8.96221617,-0.052171024 8.42596928,0.0817984471 C7.55637056,0.300131654 6.52718035,1.0507415 5.85048469,1.95785817 C5.17337576,1.05075626 4.14501206,0.300131639 3.27542811,0.0817984471 C2.73873845,-0.0530418173 2.25497536,0.00803185096 1.87916125,0.255735909 C1.42621542,0.553267111 1.30247409,0.926601678 1.27829847,1.18763331 C1.249149,1.49952524 1.33954925,1.83576987 1.54830372,2.18829394 L1.13829248,2.18829394 C0.517475236,2.18829394 0.0122374904,2.69391544 0.0122374904,3.31520497 L0.0122374904,4.7666861 C0.0122374904,5.2581535 0.336394327,5.69251747 0.805383433,5.83838288 C0.760810572,5.96171096 0.73747624,6.08920113 0.73747624,6.21838862 L0.73747624,10.5730534 C0.73747624,11.1939149 1.24328961,11.699743 1.86416589,11.699743 L9.83808757,11.699743 C10.4589196,11.699743 10.9639359,11.1939297 10.9639359,10.5730534 L10.9639359,6.21837385 C10.9639359,6.08835985 10.9414576,5.96045641 10.89687,5.83794009 C11.3651654,5.69126292 11.6885548,5.25689896 11.6885548,4.76667133 L11.6885548,3.31557394 C11.6885548,2.69432869 11.1835236,2.18829394 10.5626769,2.18829394 L10.5626769,2.18829394 Z M9.83807279,10.897225 L6.25134521,10.897225 L6.25134521,5.893789 L9.83808754,5.893789 C10.0168513,5.893789 10.1618164,6.03961013 10.1618164,6.21837385 L10.1618164,10.5730386 C10.1618164,10.7518171 10.0168365,10.897225 9.83807279,10.897225 L9.83807279,10.897225 Z M6.69301499,2.18829394 C7.26344423,1.53032774 8.01217967,1.01326784 8.62014163,0.86074601 C8.9359595,0.781592293 9.1942902,0.803258827 9.38139288,0.926601663 C9.58017012,1.05720604 9.61553322,1.17365631 9.62348844,1.26160653 C9.65511746,1.58409557 9.30929409,2.01888756 9.1459685,2.18829394 L6.69301499,2.18829394 Z M10.8860072,3.31558871 L10.8860072,4.7666861 C10.8860072,4.94544982 10.7414259,5.09082818 10.5626769,5.09082818 L6.25134521,5.09082818 L6.25134521,2.99121048 L10.5626769,2.99121048 C10.7414259,2.99121048 10.8860072,3.1368545 10.8860072,3.31558871 L10.8860072,3.31558871 Z M5.44922566,5.893789 L5.44922566,10.897225 L1.86415111,10.897225 C1.68495936,10.897225 1.53994999,10.7518023 1.53994999,10.5730386 L1.53994999,6.21837385 C1.53994999,6.03961013 1.68495936,5.893789 1.86415111,5.893789 L5.44922566,5.893789 Z M2.07749569,1.26160653 C2.08539188,1.17365631 2.12124203,1.05719127 2.31917798,0.926601663 C2.50498186,0.803258827 2.7633273,0.78052963 3.08085725,0.86074601 C3.68543935,1.01241179 4.43336302,1.52951596 5.00504681,2.18829394 L2.55415959,2.18829394 C2.40791044,2.04017037 2.04539437,1.59182941 2.07749569,1.26160653 L2.07749569,1.26160653 Z M0.814120875,3.31558871 C0.814120875,3.13686926 0.959130245,2.99121048 1.13827771,2.99121048 L5.4492109,2.99121048 L5.4492109,5.09082816 L1.13827771,5.09082816 C0.959130245,5.09082816 0.814120875,4.94544981 0.814120875,4.76668608 L0.814120875,3.31558871 Z" id="形状"></path>
            </g>
        </g>
    </g>
</svg>

<svg width="12" height="12" xmlns="http://www.w3.org/2000/svg"><path d="M10.563 2.188h-.41c.208-.352.299-.688.27-1-.025-.261-.148-.635-.602-.932-.375-.248-.859-.308-1.395-.174-.87.218-1.899.969-2.576 1.876C5.173 1.05 4.145.3 3.275.082 2.74-.053 2.255.008 1.88.256c-.453.297-.577.67-.6.932-.03.312.06.648.27 1h-.41c-.622 0-1.127.506-1.127 1.127v1.452c0 .491.324.926.793 1.071-.044.124-.068.251-.068.38v4.355c0 .62.506 1.127 1.127 1.127h7.974c.62 0 1.126-.506 1.126-1.127V6.218c0-.13-.023-.258-.067-.38.468-.147.792-.581.792-1.071V3.316c0-.622-.505-1.128-1.126-1.128zm-.725 8.71H6.251V5.893h3.587c.179 0 .324.146.324.324v4.355a.324.324 0 0 1-.324.324zm-3.145-8.71c.57-.658 1.32-1.175 1.927-1.327.316-.08.574-.058.761.066.2.13.235.247.242.335.032.322-.314.757-.477.926H6.693zm4.193 1.128v1.45a.324.324 0 0 1-.323.325H6.25v-2.1h4.312c.178 0 .323.146.323.325zM5.449 5.894v5.003H1.864a.324.324 0 0 1-.324-.324V6.218c0-.178.145-.324.324-.324H5.45zM2.077 1.262c.008-.088.044-.205.242-.335.186-.124.444-.146.762-.066.604.151 1.352.669 1.924 1.327h-2.45c-.147-.148-.51-.596-.478-.926zM.814 3.316c0-.18.145-.325.324-.325H5.45v2.1H1.14a.324.324 0 0 1-.325-.324V3.316z"/></svg>
